dist/img/svg/advantages/wind.svg

<svg width="32" height="23" viewBox="0 0 32 23" fill="none" xmlns="http://www.w3.org/2000/svg">
<path d="M0.436201 12.5447C2.3292 14.1334 4.4747 15.9342 8.62477 15.9342C12.775 15.9342 14.9206 14.1334 16.8136 12.5447C18.6039 11.0422 20.15 9.74458 23.3749 9.74458C26.5998 9.74458 28.146 11.0422 29.9361 12.5447C30.4602 12.9844 31.2493 12.9254 31.6988 12.4126C32.1482 11.8999 32.0878 11.1277 31.5638 10.688C29.6707 9.09922 27.5251 7.2984 23.3749 7.2984C19.2247 7.2984 17.0791 9.09916 15.186 10.688C13.3958 12.1904 11.8496 13.488 8.62477 13.488C5.39995 13.488 3.85401 12.1905 2.06389 10.688C1.53989 10.2482 0.750764 10.3072 0.301264 10.82C-0.148236 11.3327 -0.0877986 12.1049 0.436201 12.5447Z" fill="#78C081"/>
<path d="M0.436201 5.85436C2.32914 7.44315 4.47464 9.24391 8.62477 9.24391C12.775 9.24391 14.9206 7.44315 16.8136 5.85436C18.6039 4.35191 20.15 3.05428 23.3749 3.05428C26.5997 3.05428 28.1458 4.35185 29.9361 5.85436C30.4602 6.29424 31.2493 6.23498 31.6987 5.7222C32.1482 5.20948 32.0876 4.43722 31.5636 3.99752C29.6706 2.40873 27.525 0.608093 23.3749 0.608093C19.2247 0.608093 17.0791 2.40885 15.186 3.99764C13.3958 5.50009 11.8496 6.79773 8.62477 6.79773C5.40001 6.79773 3.85401 5.50015 2.06389 3.99764C1.53989 3.55782 0.750701 3.6169 0.301264 4.12968C-0.148236 4.6424 -0.0877986 5.4146 0.436201 5.85436Z" fill="#78C081"/>
<path d="M31.5637 17.3773C29.6707 15.7886 27.525 13.9878 23.3748 13.9878C19.2247 13.9878 17.079 15.7885 15.186 17.3773C13.3957 18.8798 11.8496 20.1774 8.62471 20.1774C5.40009 20.1774 3.85403 18.8798 2.0639 17.3774L2.06377 17.3773C1.53977 16.9377 0.750712 16.9967 0.301212 17.5094C-0.148226 18.0221 -0.0877882 18.7943 0.436212 19.2341C2.32921 20.8229 4.47478 22.6236 8.62471 22.6236C12.7749 22.6236 14.9205 20.8228 16.8136 19.234C18.6038 17.7316 20.15 16.4339 23.3748 16.4339C26.5998 16.4339 28.1459 17.7316 29.9361 19.234C30.4602 19.6738 31.2493 19.6147 31.6987 19.102C32.1482 18.5892 32.0878 17.8171 31.5637 17.3773Z" fill="#78C081"/>
</svg>

<svg width="32" height="23" fill="none" xmlns="http://www.w3.org/2000/svg"><path d="M.436 12.545c1.893 1.588 4.039 3.39 8.189 3.39s6.296-1.802 8.189-3.39c1.79-1.503 3.336-2.8 6.56-2.8 3.226 0 4.772 1.297 6.562 2.8a1.27 1.27 0 001.763-.132 1.205 1.205 0 00-.135-1.725c-1.893-1.589-4.039-3.39-8.19-3.39-4.15 0-6.295 1.801-8.188 3.39-1.79 1.502-3.336 2.8-6.561 2.8s-4.771-1.297-6.561-2.8A1.27 1.27 0 00.3 10.82a1.205 1.205 0 00.135 1.725z" fill="#78C081"/><path d="M.436 5.854c1.893 1.59 4.039 3.39 8.189 3.39s6.296-1.8 8.189-3.39c1.79-1.502 3.336-2.8 6.56-2.8 3.226 0 4.772 1.298 6.562 2.8a1.27 1.27 0 001.763-.132 1.205 1.205 0 00-.135-1.724c-1.893-1.59-4.039-3.39-8.19-3.39-4.15 0-6.295 1.8-8.188 3.39-1.79 1.502-3.336 2.8-6.561 2.8S3.854 5.5 2.064 3.998A1.27 1.27 0 00.3 4.13a1.204 1.204 0 00.135 1.724zm31.128 11.523c-1.893-1.588-4.039-3.39-8.19-3.39-4.15 0-6.295 1.802-8.188 3.39-1.79 1.503-3.336 2.8-6.561 2.8s-4.771-1.297-6.561-2.8A1.27 1.27 0 00.3 17.51a1.205 1.205 0 00.135 1.725c1.893 1.589 4.039 3.39 8.189 3.39s6.296-1.801 8.189-3.39c1.79-1.502 3.336-2.8 6.56-2.8 3.226 0 4.772 1.298 6.562 2.8a1.27 1.27 0 001.763-.132 1.205 1.205 0 00-.135-1.725z" fill="#78C081"/></svg>
